packages/gestalt-icons-android/vr-theme/ic_vr_layout_gestalt.svg

<svg width="24" height="24" viewBox="0 0 24 24" fill="none" xmlns="http://www.w3.org/2000/svg">
<path fill-rule="evenodd" clip-rule="evenodd" d="M1 19C1 21.2091 2.79086 23 5 23H19C21.2091 23 23 21.2091 23 19V5C23 2.79086 21.2091 1 19 1L5 1C2.79086 1 1 2.79086 1 5L1 19ZM3 5L3 11L11 11V3L5 3C3.89543 3 3 3.89543 3 5ZM13 3V11H21V5C21 3.89543 20.1046 3 19 3L13 3ZM3 19L3 13L21 13V19C21 20.1046 20.1046 21 19 21H5C3.89543 21 3 20.1046 3 19Z" fill="black"/>
</svg>

<svg xmlns="http://www.w3.org/2000/svg" width="24" height="24"><path d="M1 19a4 4 0 0 0 4 4h14a4 4 0 0 0 4-4V5a4 4 0 0 0-4-4H5a4 4 0 0 0-4 4zM5 3h6v8H3V5c0-1.1.9-2 2-2m14 0a2 2 0 0 1 2 2v6h-8V3zM3 19v-6h18v6a2 2 0 0 1-2 2H5a2 2 0 0 1-2-2"/></svg>
